!!!COM: Carl Loewe
!!!CNT: Deutscher
!!!TXO: Deutsch
!!!OTL: "Prinz Eugen"
!!!LYR: Freiligrath
!!!OPS: Op. 92
!!!ENC: O'Neal Douglas
!!!YOR: Twelve Songs and Ballads Vol. 1 and 2
!!!YOR: New York:Schirmer, 1903
!!!ODT: 1844/
!!NB: Vocal melody and text encoded.
**kern	**text
*staff1	*staff1
=1-	=1-
*clefG2	*
*k[b-]	*
*M5/4	*
*MM70	*
{8F	{Zel-
8A	-te,
4d	Po-
4d	-sten,
8f	Wer-
8a	-da-
8dd	-ru-
8dd}	-fer!}
=2	=2
{8a	{Lust'-
8e	-ge
4a	Nacht
4A	am
8a	Do-
8e	-nau-
8a	-u-
8a	-fer!
=3	=3
8g#	Pfer-
8g#	-de
4g#	sten'n
4a	im
8bn	Kreis
8a	um-
4e}	-her}
=4	=4
{8c	{an-
8e	-ge-
4a	-bun-
4A	-den
8c	an
8e	den
8a	Pflo2-
8a	-cken;
=5	=5
8e	an
8g	den
4cc	en-
4c	-gen
8e	Sat-
8g	-tel-
8cc	-bo2-
8bn	-cken
=6	=6
8a	han-
8a	-gen
4a	Ka-
4d	-ra-
8e	-bi-
8e	-ner
4a}	schwer.}
=7	=7
qr	.
=8	=8
{8F	{Um
8A	das
4d	Feu-
4d	-er
8f	auf
8a	der
8dd	Er-
8dd}	-de,}
=9	=9
{8a	{vor
8e	den
4a	Hu-
4A	-fen
8a	sei-
8e	-ner
8a	Pfer-
8a	-de
=10	=10
8g#	liegt
8g#	das
4g#	o2st-
4a	-reich-
8bn	-sche
8a	Pi-
4e}	-ket.}
=11	=11
{8c	{Auf
8e	dem
4a	Man-
4A	-tel
8c	liegt
8e	ein
8a	Je-
8a	-der;
=12	=12
8e	von
8g	den
4cc	Tscha-
4c	-cko's
8e	weht
8g	die
8cc	Fe-
8bn	-der,
=13	=13
8a	Leut
8a	nant
4a	wu2r-
4d	-felt
8e	und
8e	Kor
4a}	net.}
=14	=14
qr	.
=15	=15
{8A	{Ne-
8Bn	-ben
4c	sei-
4c	-nem
8c	mu2-
8d	-den
8e	Sche-
8e}	-cken}
=16	=16
{8e	{ruht
8f#	auf
4g#	ei-
4e	-ner
8a	woll-
8g#	-nen
8f#	De-
8e	-cken
=17	=17
8d#	der
8c#	Trom-
4d#	-pe-
4e	-ter
8f#	ganz
8e	al-
4Bn}	-lein:}
=18	=18
{8g	{"Lasst
8bn	die
4e	Kno2-
4e	-chel,
8g	lasst
8b	die
8e	Kar-
8e	-ten!
=19	=19
8e	kai-
8g	-ser-
4cc	-li-
4c	-che
8e	Feld-
8g	-stan-
8cc	-dar-
8bn	-ten
=20	=20
8a	wird
8a	ein
4a	Rei-
4d	-ter-
8e	-lied
8e	er
4a}	freu'n!}
=21	=21
qr	.
=22	=22
{8A	{Vor
8Bn	acht
4c	Ta-
4c	-gen
8c	die
8d	Af-
8e	-fai-
8e}	-re}
=23	=23
{16e	{hab'
16e	ich,
8f#	zu
4g#	Nutz'
4e	dem
8a	gan-
8g#	-zen
8f#	Hee-
8e	-re,
=24	=24
8d#	in
8c#	ge-
4d#	-ho2r'-
4e	-gen
8f#	Reim
8e	ge-
4Bn}	-bracht;}
=25	=25
{8g	{sel-
8bn	-ber
4e	auch
4e	ge-
8g	-setzt
8b	die
8e	No-
8e	-ten;
=26	=26
8e	drum,
8g	ihr
4cc	Wei-
4c	-ssen
8e	und
8g	ihr
8cc	Ro-
8bn	-then!
=27	=27
8a	mer-
8a	-ket
4a	auf
4d	und
8e	ge-
8e	-bet
4a}	Acht!"}
=28	=28
qr	.
=29	=29
{8c	{Und
8c	er
4f	singt
4f	die
8f	neu-
8g	-e
8a	Wei-
8a}	-se}
=30	=30
{8f	{ein-
8g	-mal,
4a	zwei-
4f	-mal,
8b-	drei-
8a	-mal
8g	lei-
8f	-se
=31	=31
8e	de-
8d	-nen
4e	Rei-
4f	-ters-
8g	-leu-
8f	-ten
4c}	vor;}
=32	=32
{8a	{und
8a	wie
4f	er
4a	zum
8b-	letz-
8a	-ten
8g	Ma-
8f	-le
=33	=33
8e	en-
8d	-det,
4e	bricht
4g	mit
8a	ei-
8g	-nem
8f	Ma-
8e	-le
=34	=34
8f	los
8f	der
4f	vol-
4a	-le,
8g	kra2ft'-
8g	-ge
4f}	Chor:}
=35	=35
{8c	{"Prinz
8c	Eu-
4f	-gen,
4f	der
8f	ed-
8g	-le
8a	Rit-
8a}	-ter!"}
=36	=36
{8a	{Hei,
8b-	das
4cc	klang
4a	wie
8dd	Un-
8cc	-ge-
8b-	-wit-
8a	-ter
=37	=37
8g	weit
8f	ins
4g	Tu2r-
4a	-ken-
8b-	-la-
8a	-ger
4g}	hin.}
=38	=38
{8c	{Der
8c	Trom-
8f	-pe-
8f	-ter
8f	tha2t
8f	den
8ff	Schnurr-
8f	-bart
8f	streich-
8f	-en
=39	=39
8c	und
8A	sich
4c	auf
4c	die
8cc	Sei-
8c	-te
8c	schleich-
8c	-en
=40	=40
8f	zu
8f	der
4f	Mar-
4a	-ke-
8g	-ten-
8g	-de-
4f}	-rin.}
=41	=41
qr	.
==	==
*-	*-
